X: 13476
T: Flower Of Magherally, The
R: reel
M: 4/4
K: Adorian
E2|c3c B4|A2AG E2AB|c2e2d3B|cBA3B|
c3c B4|A2AG E2AB|c2e2d3B|cBA3cd||
eee2 e3d/c/|d3dd2cd|e2A2A2GF|GAA2 E4|
e2AAA2B2|G2EEE3D|D3EG3A/B/|B2 c2 A4||

